X:559
%%etbk:tnset id:295,pos:1,rep:3x,ant:
%%etbk:pldat 2014-03-06T19:07,2014-03-05T18:33,2014-03-03T17:59,2014-03-02T14:18,2014-03-01T14:48
T:Diamantina Drover
H: Created 2014-03-02 /  Modified 2014-03-02
K:Gmin
R:song
M:4/4
L:1/8
C:Grada
P:Refrain 
!1!D2!2!F2 | "Eb"!3!G4GFD2 | "B"!2!F6!1!D!2!B,  | "F"!3!C3B,C3D | "gm"!2!B,2 !1!G,6 |
"Eb"!3!G4GFD2 | "B"!2!F4D2F2 | "cm"!3!G8 | -G4 !3!G2!4!A2 | 
"B"!3!B3!1!F !3!FED2 | "F"!2!F6 DF | "cm"!3!G3FG3F | "gm"!1!D2!2!B,4B,2 |
"cm"!3!C4"dm"C3D | "Eb"!2!B,2!1!G,G, "F"!2!A,3B, | "gm"!1!G,8 |-G,8||
P:Verse: 1st 4 bars
"gm"!4!D4D2B,2 | "cm"!3!C3B,"dm"C3D | "gm"!2!B,2 !1!G,6 | -G,8 |


